!!!SOCIAL_FUNCTION:	songs of war
!!!PDT:	1913
!!!OTL: No_3_An_Eagle_Feather_I_See.krn
!!!REG: Great_Lakes
!!!LANG: Non-Tone
!!!LING_GROUP: Algonquin
**kern	**kern
*staff2	*staff1
=1-	=1-
*clefF4	*clefF4
*k[f#c#g#]	*k[f#c#g#]
*M3/4	*M3/4
8GG#^/L	8e\L
8GG#/J	8e\J
8GG#^/L	8e\L
8GG#/J	16.c#\L
.	32c#\JJk
8GG#^/L	4c#\
8GG#/J	.
=2||	=2||
*M2/4	*M2/4
2r	8A\L
.	8A\J
.	4A\
=3||	=3||
*M3/4	*M3/4
2.r	8c#\L
.	8c#\J
.	8c#\L
.	16.B\L
.	32B\JJk
.	4B\
=4||	=4||
*M2/4	*M2/4
2r	16.A\LL
.	32F#\JK
.	8F#\J
.	4F#\
=5||	=5||
*M3/4	*M3/4
2.r	8c#\L
.	8c#\J
.	4.A\
.	8c#\
=6||	=6||
*M2/4	*M2/4
2r	32A\LLK
.	16.F#\J
.	8F#\J
.	4F#\
=7||	=7||
*M3/4	*M3/4
2.r	8A\L
.	8A\J
.	4F#\
.	4E\
=8||	=8||
*M2/4	*M2/4
2r	16E/LL
.	16C#/J
.	8C#/J
.	4C#/
=9||	=9||
*M3/4	*M3/4
2.r	8E\L
.	8E\J
.	4C#/
.	4C#/
=10||	=10||
*M2/4	*M2/4
2r	8AA/L
.	8AA/J
.	4AA/
=11	=11
2r	2AA/
==	==
*-	*-
